packages/foundations/assets/icons/functional/images/notification/question_mark_circle_16_filled.svg

<svg width="16" height="16" viewBox="0 0 16 16" fill="none" xmlns="http://www.w3.org/2000/svg">
<g clip-path="url(#clip0_2214_8108)">
<path fill-rule="evenodd" clip-rule="evenodd" d="M8.0031 1.60001C11.5279 1.60001 14.4 4.46017 14.4 7.99545C14.4 11.5239 11.5399 14.4 8.0039 14.4C4.45454 14.4 1.59998 11.5069 1.59998 7.99553C1.59998 4.47345 4.47094 1.60001 8.0031 1.60001ZM7.7527 10.1463C7.15702 10.1463 6.67318 10.6154 6.67318 11.2352C6.67318 11.8478 7.1447 12.3161 7.76934 12.3161C8.38382 12.3161 8.84294 11.8336 8.84294 11.2348C8.84294 10.6495 8.37462 10.1463 7.7527 10.1463ZM7.90366 3.80881C6.84486 3.80881 5.96062 4.25249 5.61166 4.46441L6.32974 6.18145C6.77822 5.94457 7.40678 5.69761 7.8643 5.69761C8.35222 5.69761 8.4527 5.97857 8.4527 6.20081C8.4527 7.10329 6.79806 7.05753 6.79806 8.64785V9.60001H8.67118V8.64785C8.67118 8.01753 10.3293 7.62409 10.3293 5.85385C10.3293 4.58993 9.31118 3.80881 7.90366 3.80881Z" fill="#1A1C1F"/>
</g>
<defs>
<clipPath id="clip0_2214_8108">
<rect width="16" height="16" fill="white"/>
</clipPath>
</defs>
</svg>

<svg xmlns="http://www.w3.org/2000/svg" width="16" height="16" fill="none"><g clip-path="url(#a)"><path fill="#1A1C1F" fill-rule="evenodd" d="M8.003 1.6A6.4 6.4 0 0 1 14.4 7.995c0 3.529-2.86 6.405-6.396 6.405-3.55 0-6.404-2.893-6.404-6.404C1.6 4.473 4.47 1.6 8.003 1.6m-.25 8.546c-.596 0-1.08.47-1.08 1.09 0 .612.472 1.08 1.096 1.08.615 0 1.074-.482 1.074-1.081 0-.585-.468-1.089-1.09-1.089m.15-6.337c-1.058 0-1.942.443-2.291.655l.718 1.717c.448-.236 1.077-.483 1.534-.483.488 0 .589.28.589.503 0 .902-1.655.857-1.655 2.447V9.6h1.873v-.952c0-.63 1.658-1.024 1.658-2.794 0-1.264-1.018-2.045-2.425-2.045" clip-rule="evenodd"/></g><defs><clipPath id="a"><path fill="#fff" d="M0 0h16v16H0z"/></clipPath></defs></svg>
